actions/48/go-top.svg

<?xml version="1.0" encoding="UTF-8" standalone="no"?>
<svg
   xmlns:dc="http://purl.org/dc/elements/1.1/"
   xmlns:cc="http://creativecommons.org/ns#"
   xmlns:rdf="http://www.w3.org/1999/02/22-rdf-syntax-ns#"
   xmlns:svg="http://www.w3.org/2000/svg"
   xmlns="http://www.w3.org/2000/svg"
   xmlns:xlink="http://www.w3.org/1999/xlink"
   version="1.1"
   width="48"
   height="48"
   id="svg2511">
  <defs
     id="defs2513">
    <linearGradient
       id="linearGradient3167">
      <stop
         id="stop3169"
         style="stop-color:#a7cc5c;stop-opacity:1"
         offset="0" />
      <stop
         id="stop3171"
         style="stop-color:#789e2d;stop-opacity:1"
         offset="1" />
    </linearGradient>
    <linearGradient
       x1="-5.0347199"
       y1="-23.848377"
       x2="26.965281"
       y2="-23.848377"
       id="linearGradient2485"
       xlink:href="#linearGradient3167"
       gradientUnits="userSpaceOnUse"
       gradientTransform="translate(13.03472,29.34838)" />
    <linearGradient
       id="linearGradient5113">
      <stop
         id="stop5115"
         style="stop-color:#ffffff;stop-opacity:1"
         offset="0" />
      <stop
         id="stop5117"
         style="stop-color:#ffffff;stop-opacity:0"
         offset="1" />
    </linearGradient>
    <linearGradient
       x1="43.129921"
       y1="15.195395"
       x2="7.9313831"
       y2="34.731434"
       id="linearGradient5315"
       xlink:href="#linearGradient5113"
       gradientUnits="userSpaceOnUse"
       gradientTransform="matrix(0,-1.004639,1,0,-1.992111,51.04406)" />
    <linearGradient
       id="linearGradient2264">
      <stop
         id="stop2266"
         style="stop-color:#d7e866;stop-opacity:1"
         offset="0" />
      <stop
         id="stop2268"
         style="stop-color:#8cab2a;stop-opacity:1"
         offset="1" />
    </linearGradient>
    <linearGradient
       x1="23.964672"
       y1="11.357888"
       x2="23.964672"
       y2="40.70282"
       id="linearGradient3173"
       xlink:href="#linearGradient2264"
       gradientUnits="userSpaceOnUse" />
    <linearGradient
       id="linearGradient5105">
      <stop
         id="stop5107"
         style="stop-color:#000000;stop-opacity:1"
         offset="0" />
      <stop
         id="stop5109"
         style="stop-color:#000000;stop-opacity:0"
         offset="1" />
    </linearGradient>
    <radialGradient
       cx="11.25"
       cy="19.03125"
       r="8.0625"
       fx="11.25"
       fy="19.03125"
       id="radialGradient4354"
       xlink:href="#linearGradient5105"
       gradientUnits="userSpaceOnUse"
       gradientTransform="matrix(1,0,0,0.282946,0,13.64644)" />
  </defs>
  <metadata
     id="metadata2516">
    <rdf:RDF>
      <cc:Work
         rdf:about="">
        <dc:format>image/svg+xml</dc:format>
        <dc:type
           rdf:resource="http://purl.org/dc/dcmitype/StillImage" />
      </cc:Work>
    </rdf:RDF>
  </metadata>
  <g
     id="layer1">
    <g
       transform="translate(-1.425e-5,-1.13125e-5)"
       id="g2577"
       style="display:inline">
      <path
         d="m 19.3125,19.03125 a 8.0625,2.28125 0 1 1 -16.125,0 8.0625,2.28125 0 1 1 16.125,0 z"
         transform="matrix(2.48062,0,0,2.410961,-3.906962,-5.383595)"
         id="path2579"
         style="opacity:0.16292138;fill:url(#radialGradient4354);fill-opacity:1;fill-rule:nonzero;stroke:none;stroke-width:1;marker:none;visibility:visible;display:inline;overflow:visible" />
      <path
         d="M 7.5000144,27.504176 24.006038,8.500031 l 16.423291,19.004145 -7.869835,0 0,14.995839 -17.055132,0 0,-14.995839 -8.0043476,0 z"
         id="path2581"
         style="fill:url(#linearGradient3173);fill-opacity:1;fill-rule:nonzero;stroke:#548820;stroke-width:0.99999958;stroke-linecap:butt;stroke-linejoin:miter;stroke-miterlimit:4;stroke-opacity:1;stroke-dasharray:none;stroke-dashoffset:0;marker:none;visibility:visible;display:inline;overflow:visible" />
      <path
         d="M 9.6410714,26.433327 24.027344,9.916688 l 14.199301,16.516639 -6.738369,0 0,15.066683 -14.978334,0 0,-15.066683 -6.8688706,0 z"
         id="path2583"
         style="opacity:0.35400008;fill:none;stroke:url(#linearGradient5315);stroke-width:0.99999958;stroke-linecap:butt;stroke-linejoin:miter;stroke-miterlimit:4;stroke-opacity:1;stroke-dasharray:none;stroke-dashoffset:0;marker:none;visibility:visible;display:inline;overflow:visible" />
      <rect
         width="33.000008"
         height="4.0000119"
         x="7.5000019"
         y="3.5000086"
         id="rect4242"
         style="fill:#c2ce70;fill-opacity:1;fill-rule:nonzero;stroke:#548820;stroke-width:0.99999982;stroke-linecap:butt;stroke-linejoin:miter;stroke-miterlimit:4;stroke-opacity:1;stroke-dasharray:none;stroke-dashoffset:0;marker:none;visibility:visible;display:inline;overflow:visible" />
      <rect
         width="31"
         height="2.0000019"
         x="8.5"
         y="4.500001"
         id="rect6697"
         style="opacity:0.35400008;fill:url(#linearGradient2485);fill-opacity:1;fill-rule:nonzero;stroke:#ffffff;stroke-width:0.99999988;stroke-linecap:butt;stroke-linejoin:miter;stroke-miterlimit:4;stroke-opacity:1;stroke-dasharray:none;stroke-dashoffset:0;marker:none;visibility:visible;display:inline;overflow:visible" />
    </g>
  </g>
</svg>

<svg xmlns="http://www.w3.org/2000/svg" xmlns:xlink="http://www.w3.org/1999/xlink" viewBox="0 0 48 48"><defs><linearGradient id="a"><stop offset="0" stop-color="#a7cc5c"/><stop offset="1" stop-color="#789e2d"/></linearGradient><linearGradient x1="-5.035" y1="-23.848" x2="26.965" y2="-23.848" id="h" xlink:href="#a" gradientUnits="userSpaceOnUse" gradientTransform="translate(13.035 29.348)"/><linearGradient id="b"><stop offset="0" stop-color="#fff"/><stop offset="1" stop-color="#fff" stop-opacity="0"/></linearGradient><linearGradient x1="43.13" y1="15.195" x2="7.931" y2="34.731" id="g" xlink:href="#b" gradientUnits="userSpaceOnUse" gradientTransform="matrix(0 -1.00464 1 0 -1.992 51.044)"/><linearGradient id="c"><stop offset="0" stop-color="#d7e866"/><stop offset="1" stop-color="#8cab2a"/></linearGradient><linearGradient x1="23.965" y1="11.358" x2="23.965" y2="40.703" id="f" xlink:href="#c" gradientUnits="userSpaceOnUse"/><linearGradient id="d"><stop offset="0"/><stop offset="1" stop-opacity="0"/></linearGradient><radialGradient cx="11.25" cy="19.031" r="8.063" fx="11.25" fy="19.031" id="e" xlink:href="#d" gradientUnits="userSpaceOnUse" gradientTransform="matrix(1 0 0 .28295 0 13.646)"/></defs><path d="M19.313 19.03a8.063 2.28 0 1 1-16.125 0 8.063 2.28 0 1 1 16.125 0z" transform="matrix(2.48062 0 0 2.41096 -3.907 -5.384)" opacity=".163" fill="url(#e)" overflow="visible"/><path d="M7.5 27.504L24.006 8.5 40.43 27.504h-7.87V42.5H15.503V27.504H7.5z" fill="url(#f)" stroke="#548820" overflow="visible"/><path d="M9.64 26.433L24.028 9.917l14.2 16.516h-6.74V41.5H16.51V26.433H9.64z" opacity=".354" fill="none" stroke="url(#g)" overflow="visible"/><path fill="#c2ce70" stroke="#548820" overflow="visible" d="M7.5 3.5h33v4h-33z"/><path opacity=".354" fill="url(#h)" stroke="#fff" overflow="visible" d="M8.5 4.5h31v2h-31z"/></svg>
